dist/img/icons/forget/collaboration.svg

<svg width="42" height="42" viewBox="0 0 42 42" fill="none" xmlns="http://www.w3.org/2000/svg">
<g clip-path="url(#clip0)">
<path d="M21.1625 8.94141H21.1625C23.4536 8.93916 25.3103 7.08249 25.3125 4.79146V4.79141C25.3125 2.4994 23.4545 0.641406 21.1625 0.641406C18.8705 0.641406 17.0125 2.4994 17.0125 4.79141C17.0125 7.08342 18.8705 8.94141 21.1625 8.94141ZM21.1625 7.47474C19.6805 7.47474 18.4792 6.27336 18.4792 4.79141C18.4792 3.30945 19.6805 2.10807 21.1625 2.10807C22.6445 2.10807 23.8458 3.30945 23.8458 4.79141C23.8458 6.27336 22.6445 7.47474 21.1625 7.47474Z" fill="#236EFF" stroke="#236EFF" stroke-width="0.1"/>
<path d="M23.899 9.52422H23.899H23.7377H23.7259L23.7154 9.52946L23.5712 9.6012L23.5712 9.60121C22.0562 10.3555 20.275 10.3555 18.76 9.60121L18.76 9.6012L18.6158 9.52945L18.6053 9.52422H18.5936L18.4323 9.52422L18.4322 9.52422C16.5187 9.52647 14.9679 11.0773 14.9656 12.9908V12.9909V17.0909C14.9656 18.2507 15.9058 19.1909 17.0656 19.1909H25.2656C26.4254 19.1909 27.3656 18.2507 27.3656 17.0909V12.9909V12.9908C27.3634 11.0773 25.8126 9.52647 23.899 9.52422ZM25.899 17.0909C25.899 17.4406 25.6154 17.7242 25.2656 17.7242H17.0656C16.7159 17.7242 16.4323 17.4406 16.4323 17.0909V12.9909C16.4323 12.9909 16.4323 12.9909 16.4323 12.9909C16.4325 11.9458 17.237 11.0778 18.2775 10.9972C20.11 11.8434 22.2214 11.8434 24.0537 10.9972C25.0942 11.0778 25.8988 11.9458 25.899 12.9909V17.0909Z" fill="#236EFF" stroke="#236EFF" stroke-width="0.1"/>
<path d="M35.5141 23.1922H35.5141C33.2221 23.1922 31.3641 25.0502 31.3641 27.3422C31.3641 29.6342 33.2221 31.4922 35.5141 31.4922C37.8061 31.4922 39.6641 29.6342 39.6641 27.3422V27.3421C39.6618 25.0511 37.8051 23.1944 35.5141 23.1922ZM35.5141 30.0255C34.0321 30.0255 32.8307 28.8241 32.8307 27.3422C32.8307 25.8602 34.0321 24.6589 35.5141 24.6589C36.996 24.6589 38.1974 25.8602 38.1974 27.3422C38.1974 28.8241 36.996 30.0255 35.5141 30.0255Z" fill="#236EFF" stroke="#236EFF" stroke-width="0.1"/>
<path d="M38.2467 32.075H38.2466H38.0853H38.0741L38.0639 32.0798L37.9198 32.1481L37.9197 32.1481L37.9189 32.1486C36.4039 32.9028 34.6227 32.9028 33.1077 32.1486L33.1077 32.1486L33.1068 32.1481L32.9626 32.0798L32.9525 32.075H32.9412L32.7799 32.075L32.7799 32.075C30.8663 32.0773 29.3155 33.628 29.3133 35.5416V35.5417V39.6417C29.3133 40.8015 30.2535 41.7417 31.4133 41.7417H39.6133C40.7731 41.7417 41.7133 40.8015 41.7133 39.6417V35.5417V35.5416C41.711 33.628 40.1602 32.0773 38.2467 32.075ZM40.2466 39.6417C40.2466 39.9914 39.963 40.275 39.6133 40.275H31.4133C31.0635 40.275 30.7799 39.9914 30.7799 39.6417V35.5417C30.7799 35.5417 30.7799 35.5417 30.7799 35.5417C30.7801 34.4966 31.5846 33.6286 32.6252 33.548C34.4576 34.3942 36.5689 34.3942 38.4014 33.548C39.442 33.6286 40.2464 34.4966 40.2466 35.5417V39.6417Z" fill="#236EFF" stroke="#236EFF" stroke-width="0.1"/>
<path d="M6.81489 23.1922H6.81484C4.52283 23.1922 2.66484 25.0502 2.66484 27.3422C2.66484 29.6342 4.52283 31.4922 6.81484 31.4922C9.10685 31.4922 10.9648 29.6342 10.9648 27.3422V27.3421C10.9626 25.0511 9.10593 23.1944 6.81489 23.1922ZM6.81484 30.0255C5.33289 30.0255 4.13151 28.8241 4.13151 27.3422C4.13151 25.8602 5.33289 24.6589 6.81484 24.6589C8.2968 24.6589 9.49818 25.8602 9.49818 27.3422C9.49818 28.8241 8.2968 30.0255 6.81484 30.0255Z" fill="#236EFF" stroke="#236EFF" stroke-width="0.1"/>
<path d="M9.54745 32.075H9.5474H9.38613H9.37488L9.36472 32.0798L9.22053 32.1481L9.22053 32.1481L9.21966 32.1486C7.70465 32.9028 5.92347 32.9028 4.40846 32.1486L4.40847 32.1486L4.40759 32.1481L4.26341 32.0798L4.25324 32.075H4.242L4.08073 32.075L4.08067 32.075C2.1671 32.0773 0.616316 33.628 0.614062 35.5416V35.5417V39.6417C0.614062 40.8015 1.55425 41.7417 2.71406 41.7417H10.9141C12.0739 41.7417 13.0141 40.8015 13.0141 39.6417V35.5417V35.5416C13.0118 33.628 11.461 32.0773 9.54745 32.075ZM11.5474 39.6417C11.5474 39.9914 11.2638 40.275 10.9141 40.275H2.71406C2.36431 40.275 2.08073 39.9914 2.08073 39.6417V35.5417C2.08073 35.5417 2.08073 35.5417 2.08073 35.5417C2.0809 34.4966 2.88539 33.6286 3.92595 33.548C5.7584 34.3942 7.86972 34.3942 9.70218 33.548C10.7427 33.6286 11.5472 34.4966 11.5474 35.5417V39.6417Z" fill="#236EFF" stroke="#236EFF" stroke-width="0.1"/>
<path d="M27.9913 35.3761L27.9913 35.3761C28.1491 35.7491 27.9745 36.1794 27.6016 36.3371C24.0947 37.8229 20.1828 38.049 16.5299 36.9794L17.0314 37.938L17.0314 37.938C17.2189 38.2973 17.0797 38.7404 16.7205 38.928C16.3612 39.1155 15.9181 38.9763 15.7305 38.6171C15.7305 38.6171 15.7305 38.6171 15.7305 38.6171L14.3654 36.0049C14.3554 35.9898 14.3539 35.9749 14.3533 35.9679L14.3531 35.9646L14.3529 35.9642L14.353 35.9641L14.353 35.9639C14.3235 35.8723 14.3002 35.7789 14.2831 35.6843L14.2818 35.6769L14.2823 35.6769C14.2793 35.5731 14.2983 35.4699 14.3381 35.374L14.3383 35.3734L14.3383 35.3734C14.3794 35.278 14.4409 35.1927 14.5184 35.1235L14.5221 35.1203L14.5222 35.1205C14.5447 35.104 14.5683 35.0891 14.5927 35.0757C14.6485 35.0333 14.7101 34.9992 14.7756 34.9744L14.7793 34.9716C14.7821 34.9695 14.7874 34.9655 14.7941 34.9622C14.7993 34.9596 14.806 34.957 14.8139 34.9558L17.5429 34.1555L17.5429 34.1555C17.9318 34.0417 18.3391 34.2646 18.453 34.6534C18.5668 35.0423 18.3439 35.4496 17.9551 35.5635M27.9913 35.3761L17.941 35.5155M27.9913 35.3761L27.991 35.3753L27.9907 35.3746L27.9907 35.3746L27.9902 35.3736C27.8315 35.001 27.4008 34.8277 27.0283 34.9863M27.9913 35.3761L27.0283 34.9863M17.9551 35.5635L17.941 35.5155M17.9551 35.5635L17.9551 35.5635L17.941 35.5155M17.9551 35.5635L17.4891 35.7004M17.941 35.5155L17.3943 35.6761C17.4259 35.6843 17.4575 35.6924 17.4891 35.7004M17.4891 35.7004C20.6606 36.5015 24.0084 36.2519 27.0283 34.9863M17.4891 35.7004L17.3952 35.728C20.6014 36.5569 23.9919 36.3131 27.0478 35.0324M27.0283 34.9863C27.0284 34.9863 27.0284 34.9863 27.0285 34.9863L27.0478 35.0324M27.0283 34.9863C27.0283 34.9863 27.0282 34.9864 27.0282 34.9864L27.0478 35.0324M27.0283 34.9863L27.0478 35.0324M16.4632 36.9598L16.4308 36.8979C16.4531 36.9046 16.4754 36.9112 16.4977 36.9178L16.4632 36.9598ZM14.7742 34.9755C14.7741 34.9756 14.7741 34.9756 14.7742 34.9755L14.7742 34.9755Z" fill="#236EFF" stroke="#236EFF" stroke-width="0.1"/>
<path d="M27.5803 6.09393C27.2331 5.94599 26.8317 6.10751 26.6838 6.45473C26.5358 6.80195 26.6974 7.20332 27.0446 7.35126C31.9833 9.45025 35.4239 14.0249 36.0734 19.3475L38.446 18.657L37.5249 19.5781C37.5228 19.5566 37.5207 19.5352 37.5185 19.5138M27.5803 6.09393C33.0935 8.43649 36.8859 13.6015 37.4728 19.5594L37.5185 19.5138M27.5803 6.09393L27.5999 6.04791C27.5999 6.04792 27.5999 6.04792 27.5999 6.04792C33.1173 8.39229 36.9166 13.5548 37.5185 19.5138M27.5803 6.09393L37.5185 19.5138M37.5185 19.5138L38.4106 18.6217L38.4106 18.6217C38.697 18.3354 39.1612 18.3354 39.4476 18.6217C39.7343 18.9077 39.7349 19.3718 39.449 19.6586L39.4489 19.6586L37.3989 21.7086L37.3984 21.7092L37.3977 21.7098L37.3977 21.7098C37.111 21.9959 36.6466 21.9953 36.3606 21.7086L37.5185 19.5138ZM36.0159 19.29L35.3476 18.6217L35.347 18.6211C35.0556 18.3396 34.5914 18.3477 34.31 18.639L34.346 18.6738L34.31 18.639C34.0356 18.9232 34.0356 19.3737 34.31 19.658L34.31 19.658L34.3106 19.6586L36.3606 21.7086L36.0159 19.29Z" fill="#236EFF" stroke="#236EFF" stroke-width="0.1"/>
<path d="M6.1323 21.1932C6.1323 21.5706 5.82633 21.8765 5.44896 21.8765C5.07159 21.8765 4.76563 21.5706 4.76563 21.1932M6.1323 21.1932L13.3568 6.71938C13.3384 6.72928 13.32 6.7392 13.3017 6.74916M6.1323 21.1932C6.1289 15.9023 8.91096 11.0028 13.4506 8.29399L6.1323 21.1932ZM4.76563 21.1932C4.7618 15.1714 8.06322 9.63524 13.3586 6.7752L13.3017 6.74916M4.76563 21.1932H4.71563C4.71563 21.1932 4.71563 21.1932 4.71563 21.1932M4.76563 21.1932L13.4115 8.37579M13.3017 6.74916C8.00951 9.62312 4.71179 15.1656 4.71563 21.1932M13.3017 6.74916L11.9779 6.14384L11.9762 6.14305L11.9762 6.14302C11.6342 5.97059 11.4825 5.56396 11.628 5.20967C11.7818 4.83502 12.2102 4.656 12.5849 4.80981L12.5867 4.81055L12.5867 4.81059L15.32 6.05904L15.3254 6.06152L15.3252 6.06182C15.3527 6.07858 15.379 6.09739 15.4037 6.11802M4.71563 21.1932L12.9889 9.25907C12.8141 9.62355 12.9672 10.0607 13.3311 10.2365C13.4301 10.2848 13.5388 10.31 13.649 10.3099H13.649C13.9306 10.3095 14.1871 10.1479 14.309 9.89407L14.3091 9.89403L15.6757 7.04248L15.6806 7.03223V7.02325L15.6828 7.01746C15.7014 6.96853 15.7146 6.91768 15.7219 6.86585C15.7338 6.82778 15.7427 6.78883 15.7484 6.74925L15.7494 6.74939L15.7489 6.73948C15.7465 6.69338 15.7398 6.64755 15.7288 6.6026C15.7263 6.56237 15.7203 6.52243 15.7107 6.48315C15.7094 6.47501 15.7066 6.46836 15.704 6.46353C15.703 6.46185 15.7021 6.46029 15.7011 6.45888C15.7011 6.45852 15.7011 6.45816 15.7011 6.4578V6.44475L15.6947 6.43336C15.6754 6.39892 15.6532 6.3661 15.6285 6.33538M4.71563 21.1932C4.71564 21.5982 5.04398 21.9265 5.44896 21.9265C5.85395 21.9265 6.18229 21.5982 6.18229 21.1932V21.1932C6.17893 15.9451 8.92526 11.0834 13.4115 8.37579M15.4037 6.11802C15.402 6.11713 15.4002 6.11624 15.3985 6.11535L15.3757 6.15987L15.4081 6.12178C15.4067 6.12052 15.4052 6.11927 15.4037 6.11802ZM15.4037 6.11802C15.4535 6.14405 15.5 6.17601 15.5422 6.21332L15.5475 6.21807L15.5471 6.21841C15.5779 6.25468 15.6052 6.29384 15.6285 6.33538M15.6285 6.33538C15.6275 6.3342 15.6266 6.33303 15.6256 6.33186L15.5869 6.3635L15.6307 6.33933C15.6299 6.33801 15.6292 6.33669 15.6285 6.33538ZM13.4115 8.37579L12.9889 9.25904L13.4115 8.37579Z" fill="#236EFF" stroke="#236EFF" stroke-width="0.1"/>
</g>
<defs>
<clipPath id="clip0">
<rect width="41" height="41" fill="white" transform="translate(0.664062 0.691406)"/>
</clipPath>
</defs>
</svg>

<svg width="42" height="42" fill="none" xmlns="http://www.w3.org/2000/svg"><g clip-path="url(#clip0)" fill="#236EFF" stroke="#236EFF" stroke-width=".1"><path d="M21.163 8.941h0a4.154 4.154 0 004.15-4.15v0a4.15 4.15 0 10-4.15 4.15zm0-1.466a2.683 2.683 0 110-5.367 2.683 2.683 0 010 5.367zm2.736 2.049h0-.173l-.01.005-.145.072h0a5.398 5.398 0 01-4.811 0h0l-.144-.072-.01-.005h-.175 0a3.47 3.47 0 00-3.466 3.467v4.1c0 1.16.94 2.1 2.1 2.1h8.2a2.1 2.1 0 002.1-2.1v-4.1 0a3.47 3.47 0 00-3.467-3.467zm2 7.567c0 .35-.284.633-.633.633h-8.2a.633.633 0 01-.634-.633v-4.1s0 0 0 0a2 2 0 011.846-1.994 6.889 6.889 0 005.776 0 2 2 0 011.845 1.994v4.1zm9.615 6.101h0a4.15 4.15 0 104.15 4.15v0a4.154 4.154 0 00-4.15-4.15zm0 6.834a2.683 2.683 0 110-5.367 2.683 2.683 0 010 5.367z"/><path d="M38.247 32.075h0-.172l-.011.005-.144.068h0-.001a5.398 5.398 0 01-4.811 0h0-.001l-.144-.068-.01-.005h-.173 0a3.47 3.47 0 00-3.467 3.467v4.1c0 1.16.94 2.1 2.1 2.1h8.2a2.1 2.1 0 002.1-2.1v-4.1 0a3.47 3.47 0 00-3.466-3.467zm2 7.567c0 .35-.284.633-.634.633h-8.2a.633.633 0 01-.633-.633v-4.1s0 0 0 0a2 2 0 011.845-1.994 6.889 6.889 0 005.776 0 2 2 0 011.846 1.994v4.1zM6.815 23.192h0a4.15 4.15 0 104.15 4.15v0a4.154 4.154 0 00-4.15-4.15zm0 6.834a2.683 2.683 0 110-5.367 2.683 2.683 0 010 5.367z"/><path d="M9.547 32.075h0-.172l-.01.005-.144.068h0-.001a5.398 5.398 0 01-4.812 0h0l-.145-.068-.01-.005h-.172 0a3.47 3.47 0 00-3.467 3.467v4.1c0 1.16.94 2.1 2.1 2.1h8.2a2.1 2.1 0 002.1-2.1v-4.1 0a3.47 3.47 0 00-3.467-3.467zm2 7.567c0 .35-.283.633-.633.633h-8.2a.633.633 0 01-.633-.633v-4.1s0 0 0 0a2 2 0 011.845-1.994 6.889 6.889 0 005.776 0 2 2 0 011.845 1.994v4.1zm16.444-4.266h0a.733.733 0 01-.39.961 16.498 16.498 0 01-11.071.642l.501.959h0a.734.734 0 01-1.3.68s0 0 0 0l-1.366-2.613a.077.077 0 01-.012-.037v-.003h0v-.001a2.173 2.173 0 01-.07-.28l-.001-.007h0a.735.735 0 01.056-.303h0a.714.714 0 01.18-.25l.004-.004h0a.64.64 0 01.07-.044.729.729 0 01.184-.102l.003-.002a.048.048 0 01.015-.01.067.067 0 01.02-.006l2.729-.8h0a.734.734 0 01.412 1.407m10.036-.187l-10.05.14m10.05-.14h0v-.001h0v-.001a.733.733 0 00-.963-.388m.963.39l-.963-.39m-9.073.578l-.014-.048m.014.047h0l-.014-.047m.014.047l-.466.137m.452-.184l-.547.16.095.024m0 0c3.172.801 6.52.552 9.54-.714m-9.54.714l-.094.028c3.206.829 6.597.585 9.653-.696m-.02-.046s0 0 0 0l.02.046m-.02-.046s0 0 0 0l.02.046m-.02-.046l.02.046M16.463 36.96l-.032-.062.067.02-.035.042zm-1.689-1.985s0 0 0 0h0zM27.58 6.094a.683.683 0 10-.535 1.257 15.01 15.01 0 019.028 11.997l2.373-.691-.921.921a12.72 12.72 0 00-.006-.064M27.58 6.094a16.375 16.375 0 019.893 13.465l.046-.045M27.58 6.094l.02-.046s0 0 0 0a16.425 16.425 0 019.919 13.466M27.58 6.094l9.939 13.42m0 0l.892-.892h0a.733.733 0 011.038 1.037h0l-2.05 2.05h0-.001 0a.733.733 0 01-1.037 0l1.158-2.195zm-1.503-.224l-.668-.668h-.001a.733.733 0 00-1.037.017l.036.035-.036-.035a.734.734 0 000 1.019h0l2.05 2.05-.344-2.418zM6.132 21.193a.683.683 0 01-1.366 0m1.366 0L13.357 6.72l-.055.03m-7.17 14.444a15.01 15.01 0 017.319-12.899l-7.319 12.9zm-1.366 0a16.375 16.375 0 018.593-14.418l-.057-.026M4.766 21.193h-.05s0 0 0 0m.05 0l8.646-12.817m-.11-1.627a16.425 16.425 0 00-8.586 14.444M13.302 6.75l-1.324-.605-.002-.001h0a.733.733 0 01.609-1.333h.002L15.32 6.06l.005.003h0a.651.651 0 01.079.056M4.716 21.193L12.989 9.26a.733.733 0 00.66 1.05h0a.733.733 0 00.66-.415h0l1.367-2.852.005-.01v-.009l.002-.006a.703.703 0 00.039-.151.748.748 0 00.026-.117h.001v-.01a.737.737 0 00-.02-.136.68.68 0 00-.025-.14l-.003-.004v-.015l-.006-.012a.712.712 0 00-.066-.098M4.716 21.193a.733.733 0 001.466 0v0a14.96 14.96 0 017.23-12.817m1.992-2.258c-.002 0-.004-.002-.005-.003l-.023.045.032-.038-.004-.004zm0 0a.69.69 0 01.138.095l.005.005h0a.74.74 0 01.082.117m0 0c-.002 0-.002-.002-.003-.003l-.04.032.045-.025-.002-.004zm-2.217 2.04l-.423.884.422-.883z"/></g><defs><clipPath id="clip0"><path fill="#fff" transform="translate(.664 .691)" d="M0 0h41v41H0z"/></clipPath></defs></svg>
